X: 29408
T: Nicky's Archive
R: barndance
M: 4/4
K: Dmajor
M:2/4
|:AF A>A|BG B>B|cA ce|d>e f/e/d/B/|
AF A>A|BG B>B|cA ce|df d2:|
|:Af f>e|ed dc/d/|Bg g>f|fe ec/B/|
Af f>e|ed dc/d/|Bg B>c|ed d2:|

